X: 31
T:Bill Cheatham
R:barndance
S:Fiddle Players Tunebook 2
M:4/4
L:1/8
K:Amaj
AF |\
"A"EFAB c3 d |"A"cBAc BAFE |"D"DEFA d3 e |"D"fedf edcA |\
"A"EFAB c3 d |"A"cBAc BABc |"D"dcde fgaf |"E"ecBc "A"A2 :: af |\
"A"ecea "D"fdfa |"E"gegb "A"a2 (3efg |"A"agae "A"faed |"A"cA c2 "E"B2 af
 |\
"A"ecea "D"fdfa |"E"gegb "A"a2 (3efg |"A"agae "D"faed |"E"cA B2 "A"A2 :|
